; generated by PrusaSlicer 2.4.2 on 2022-07-08 at 19:19:38 UTC

; 

; external perimeters extrusion width = 0.45mm
; perimeters extrusion width = 0.45mm
; infill extrusion width = 0.45mm
; solid infill extrusion width = 0.45mm
; top infill extrusion width = 0.40mm
; support material extrusion width = 0.35mm
; first layer extrusion width = 0.42mm

M107
M190 S60 ; set bed temperature and wait for it to be reached
M104 S205 ; set temperature
;TYPE:Custom
G28 ; home all axes
G1 Z5 F5000 ; lift nozzle
M109 S205 ; set temperature and wait for it to be reached
G21 ; set units to millimeters
G90 ; use absolute coordinates
M82 ; use absolute distances for extrusion
G92 E0
; Filament gcode
M107
;LAYER_CHANGE
;Z:0.25
;HEIGHT:0.25
G1 Z.25 F7800
G1 E-2 F2400
G92 E0
G1 X75.843 Y105.49 F7800
G1 E2 F2400
;TYPE:Skirt/Brim
;WIDTH:0.42
G1 F1800
G1 X77.848 Y104.475 E2.08559
G1 X79.675 Y104.208 E2.15588
G1 X189.424 Y104.208 E6.33486
G1 X191.636 Y104.604 E6.42045
G1 X194.06 Y106.211 E6.53119
G1 X225.794 Y139.939 E8.29456
G1 X227.021 Y141.822 E8.38016
G1 X227.524 Y144.298 E8.47634
G1 X227.531 Y156.003 E8.92204
G1 X227.135 Y158.216 E9.00763
G1 X225.804 Y160.366 E9.10393
G1 X200.393 Y187.41 E10.51693
G1 X193.948 Y193.924 E10.86588
G1 X192.109 Y195.217 E10.95147
G1 X189.424 Y195.811 E11.05621
G1 X79.675 Y195.811 E15.23519
G1 X77.462 Y195.414 E15.32078
G1 X75.525 Y194.273 E15.40638
G1 X74.106 Y192.53 E15.49197
G1 X73.446 Y190.759 E15.56394
G1 X72.621 Y186.85 E15.71607
G1 X72.483 Y185.539 E15.76626
G1 X72.443 Y114.539 E18.46977
G1 X72.59 Y113.178 E18.52191
G1 X73.455 Y109.216 E18.67632
G1 X74.315 Y107.139 E18.76191
G1 X75.802 Y105.534 E18.84522
G1 E16.84522 F2400
G92 E0
G1 X93.983 Y114.092 F7800
G1 E2 F2400
;TYPE:Support material
G1 F1800
G1 X79.675 Y114.1 E2.54482
G1 X79.675 Y110.574 E2.67909
G1 X93.983 Y110.574 E3.22391
G1 X93.983 Y114.037 E3.35578
G1 X93.407 Y113.928 F7800
G1 F1800
G1 X93.407 Y110.904 E3.47093
G1 X93 Y110.904 E3.48643
G1 X93 Y113.763 E3.5953
G1 X92.593 Y113.763 E3.6108
G1 X92.593 Y110.904 E3.71969
G1 X92.186 Y110.904 E3.73519
G1 X92.186 Y113.763 E3.84408
G1 X91.779 Y113.764 E3.85958
G1 X91.779 Y110.904 E3.96848
G1 X91.372 Y110.904 E3.98398
G1 X91.372 Y113.764 E4.09289
G1 X90.965 Y113.764 E4.10839
G1 X90.965 Y110.904 E4.21731
G1 X90.558 Y110.904 E4.23281
G1 X90.558 Y113.764 E4.34174
G1 X90.151 Y113.765 E4.35724
G1 X90.151 Y110.904 E4.46617
G1 X89.744 Y110.904 E4.48167
G1 X89.744 Y113.765 E4.59062
G1 X89.337 Y113.765 E4.60612
G1 X89.337 Y110.904 E4.71507
G1 X88.93 Y110.904 E4.73057
G1 X88.93 Y113.765 E4.83954
G1 X88.523 Y113.765 E4.85504
G1 X88.523 Y110.904 E4.96401
G1 X88.116 Y110.904 E4.97951
G1 X88.116 Y113.766 E5.08849
G1 X87.709 Y113.766 E5.10399
G1 X87.709 Y110.904 E5.21298
G1 X87.302 Y110.904 E5.22848
G1 X87.302 Y113.766 E5.33748
G1 X86.895 Y113.766 E5.35298
G1 X86.895 Y110.904 E5.46198
G1 X86.487 Y110.904 E5.47748
G1 X86.487 Y113.767 E5.5865
G1 X86.08 Y113.767 E5.602
G1 X86.08 Y110.904 E5.71102
G1 X85.673 Y110.904 E5.72652
G1 X85.673 Y113.767 E5.83555
G1 X85.266 Y113.767 E5.85105
G1 X85.266 Y110.904 E5.9601
G1 X84.859 Y110.904 E5.9756
G1 X84.859 Y113.768 E6.08465
G1 X84.452 Y113.768 E6.10015
G1 X84.452 Y110.904 E6.20921
G1 X84.045 Y110.904 E6.22471
G1 X84.045 Y113.768 E6.33377
G1 X83.638 Y113.768 E6.34927
G1 X83.638 Y110.904 E6.45835
G1 X83.231 Y110.904 E6.47385
G1 X83.231 Y113.768 E6.58293
G1 X82.824 Y113.769 E6.59843
G1 X82.824 Y110.904 E6.70753
G1 X82.417 Y110.904 E6.72303
G1 X82.417 Y113.769 E6.83213
G1 X82.01 Y113.769 E6.84763
G1 X82.01 Y110.904 E6.95674
G1 X81.603 Y110.904 E6.97224
G1 X81.603 Y113.769 E7.08136
G1 X81.196 Y113.77 E7.09686
G1 X81.196 Y110.904 E7.20599
G1 X80.789 Y110.904 E7.22149
G1 X80.789 Y113.77 E7.33063
G1 X80.382 Y113.77 E7.34613
G1 X80.382 Y110.739 E7.46155
G1 E5.46155 F2400
G92 E0
G1 X93.983 Y124.882 F7800
G1 E2 F2400
G1 F1800
G1 X79.675 Y124.882 E2.54482
G1 X79.675 Y120.97 E2.69377
G1 X93.983 Y120.962 E3.23859
G1 X93.983 Y124.827 E3.38576
G1 X93.407 Y124.717 F7800
G1 F1800
G1 X93.407 Y121.292 E3.51618
G1 X93 Y121.292 E3.53168
G1 X93 Y124.552 E3.65581
G1 X92.593 Y124.552 E3.67131
G1 X92.593 Y121.293 E3.79543
G1 X92.186 Y121.293 E3.81093
G1 X92.186 Y124.552 E3.93505
G1 X91.779 Y124.552 E3.95055
G1 X91.779 Y121.293 E4.07465
G1 X91.372 Y121.293 E4.09015
G1 X91.372 Y124.552 E4.21425
G1 X90.965 Y124.552 E4.22975
G1 X90.965 Y121.294 E4.35384
G1 X90.558 Y121.294 E4.36934
G1 X90.558 Y124.552 E4.49341
G1 X90.151 Y124.552 E4.50891
G1 X90.151 Y121.294 E4.63298
G1 X89.744 Y121.294 E4.64848
G1 X89.744 Y124.552 E4.77255
G1 X89.337 Y124.552 E4.78805
G1 X89.337 Y121.294 E4.9121
G1 X88.93 Y121.295 E4.9276
G1 X88.93 Y124.552 E5.05164
G1 X88.523 Y124.552 E5.06714
G1 X88.523 Y121.295 E5.19118
G1 X88.116 Y121.295 E5.20668
G1 X88.116 Y124.552 E5.3307
G1 X87.709 Y124.552 E5.3462
G1 X87.709 Y121.295 E5.47022
G1 X87.302 Y121.296 E5.48572
G1 X87.302 Y124.552 E5.60973
G1 X86.895 Y124.552 E5.62523
G1 X86.895 Y121.296 E5.74923
G1 X86.487 Y121.296 E5.76473
G1 X86.487 Y124.552 E5.88872
G1 X86.08 Y124.552 E5.90422
G1 X86.08 Y121.296 E6.0282
G1 X85.673 Y121.297 E6.0437
G1 X85.673 Y124.552 E6.16768
G1 X85.266 Y124.552 E6.18318
G1 X85.266 Y121.297 E6.30714
G1 X84.859 Y121.297 E6.32264
G1 X84.859 Y124.552 E6.4466
G1 X84.452 Y124.552 E6.4621
G1 X84.452 Y121.297 E6.58605
G1 X84.045 Y121.297 E6.60155
G1 X84.045 Y124.552 E6.72549
G1 X83.638 Y124.552 E6.74099
G1 X83.638 Y121.298 E6.86492
G1 X83.231 Y121.298 E6.88042
G1 X83.231 Y124.552 E7.00434
G1 X82.824 Y124.552 E7.01984
G1 X82.824 Y121.298 E7.14375
G1 X82.417 Y121.298 E7.15925
G1 X82.417 Y124.552 E7.28315
G1 X82.01 Y124.552 E7.29865
G1 X82.01 Y121.299 E7.42255
G1 X81.603 Y121.299 E7.43805
G1 X81.603 Y124.552 E7.56194
G1 X81.196 Y124.552 E7.57744
G1 X81.196 Y121.299 E7.70131
G1 X80.789 Y121.299 E7.71681
G1 X80.789 Y124.552 E7.84068
G1 X80.382 Y124.552 E7.85618
G1 X80.382 Y121.135 E7.98632
G1 E5.98632 F2400
G92 E0
G1 X93.983 Y179.092 F7800
G1 E2 F2400
G1 F1800
G1 X79.675 Y179.1 E2.54482
G1 X79.675 Y175.137 E2.69574
G1 X93.983 Y175.137 E3.24056
G1 X93.983 Y179.037 E3.38907
G1 X93.407 Y178.928 F7800
G1 F1800
G1 X93.407 Y175.466 E3.52087
G1 X93 Y175.466 E3.53637
G1 X93 Y178.763 E3.66189
G1 X92.593 Y178.763 E3.67739
G1 X92.593 Y175.466 E3.80292
G1 X92.186 Y175.466 E3.81842
G1 X92.186 Y178.763 E3.94396
G1 X91.779 Y178.764 E3.95946
G1 X91.779 Y175.466 E4.08501
G1 X91.372 Y175.466 E4.10051
G1 X91.372 Y178.764 E4.22606
G1 X90.965 Y178.764 E4.24156
G1 X90.965 Y175.466 E4.36713
G1 X90.558 Y175.466 E4.38263
G1 X90.558 Y178.764 E4.5082
G1 X90.151 Y178.765 E4.5237
G1 X90.151 Y175.466 E4.64929
G1 X89.744 Y175.466 E4.66479
G1 X89.744 Y178.765 E4.79038
G1 X89.337 Y178.765 E4.80588
G1 X89.337 Y175.466 E4.93148
G1 X88.93 Y175.466 E4.94698
G1 X88.93 Y178.765 E5.07259
G1 X88.523 Y178.765 E5.08809
G1 X88.523 Y175.466 E5.21371
G1 X88.116 Y175.466 E5.22921
G1 X88.116 Y178.766 E5.35484
G1 X87.709 Y178.766 E5.37033
G1 X87.709 Y175.466 E5.49597
G1 X87.302 Y175.466 E5.51147
G1 X87.302 Y178.766 E5.63712
G1 X86.895 Y178.766 E5.65262
G1 X86.895 Y175.466 E5.77827
G1 X86.487 Y175.466 E5.79377
G1 X86.487 Y178.767 E5.91943
G1 X86.08 Y178.767 E5.93493
G1 X86.08 Y175.466 E6.0606
G1 X85.673 Y175.466 E6.0761
G1 X85.673 Y178.767 E6.20178
G1 X85.266 Y178.767 E6.21728
G1 X85.266 Y175.466 E6.34297
G1 X84.859 Y175.466 E6.35847
G1 X84.859 Y178.768 E6.48417
G1 X84.452 Y178.768 E6.49967
G1 X84.452 Y175.466 E6.62537
G1 X84.045 Y175.466 E6.64087
G1 X84.045 Y178.768 E6.76659
G1 X83.638 Y178.768 E6.78209
G1 X83.638 Y175.466 E6.90781
G1 X83.231 Y175.466 E6.92331
G1 X83.231 Y178.768 E7.04904
G1 X82.824 Y178.769 E7.06454
G1 X82.824 Y175.466 E7.19028
G1 X82.417 Y175.466 E7.20578
G1 X82.417 Y178.769 E7.33153
G1 X82.01 Y178.769 E7.34703
G1 X82.01 Y175.466 E7.47279
G1 X81.603 Y175.466 E7.48829
G1 X81.603 Y178.769 E7.61406
G1 X81.196 Y178.77 E7.62955
G1 X81.196 Y175.466 E7.75533
G1 X80.789 Y175.466 E7.77083
G1 X80.789 Y178.77 E7.89661
G1 X80.382 Y178.77 E7.91211
G1 X80.382 Y175.302 E8.04419
G1 E6.04419 F2400
G92 E0
G1 X93.983 Y189.445 F7800
G1 E2 F2400
G1 F1800
G1 X79.675 Y189.445 E2.54482
G1 X79.675 Y185.97 E2.67713
G1 X93.983 Y185.962 E3.22195
G1 X93.983 Y189.39 E3.35247
G1 X93.407 Y189.28 F7800
G1 F1800
G1 X93.407 Y186.292 E3.46624
G1 X93 Y186.292 E3.48174
G1 X93 Y189.115 E3.58922
G1 X92.593 Y189.115 E3.60472
G1 X92.593 Y186.293 E3.7122
G1 X92.186 Y186.293 E3.7277
G1 X92.186 Y189.115 E3.83517
G1 X91.779 Y189.115 E3.85067
G1 X91.779 Y186.293 E3.95813
G1 X91.372 Y186.293 E3.97363
G1 X91.372 Y189.115 E4.08108
G1 X90.965 Y189.115 E4.09657
G1 X90.965 Y186.294 E4.20402
G1 X90.558 Y186.294 E4.21952
G1 X90.558 Y189.115 E4.32695
G1 X90.151 Y189.115 E4.34245
G1 X90.151 Y186.294 E4.44987
G1 X89.744 Y186.294 E4.46537
G1 X89.744 Y189.115 E4.57279
G1 X89.337 Y189.115 E4.58829
G1 X89.337 Y186.294 E4.69569
G1 X88.93 Y186.295 E4.71119
G1 X88.93 Y189.115 E4.81859
G1 X88.523 Y189.115 E4.83409
G1 X88.523 Y186.295 E4.94148
G1 X88.116 Y186.295 E4.95698
G1 X88.116 Y189.115 E5.06436
G1 X87.709 Y189.115 E5.07986
G1 X87.709 Y186.295 E5.18723
G1 X87.302 Y186.296 E5.20273
G1 X87.302 Y189.115 E5.31009
G1 X86.895 Y189.115 E5.32559
G1 X86.895 Y186.296 E5.43294
G1 X86.487 Y186.296 E5.44844
G1 X86.487 Y189.115 E5.55579
G1 X86.08 Y189.115 E5.57129
G1 X86.08 Y186.296 E5.67862
G1 X85.673 Y186.297 E5.69412
G1 X85.673 Y189.115 E5.80145
G1 X85.266 Y189.115 E5.81695
G1 X85.266 Y186.297 E5.92427
G1 X84.859 Y186.297 E5.93977
G1 X84.859 Y189.115 E6.04708
G1 X84.452 Y189.115 E6.06258
G1 X84.452 Y186.297 E6.16988
G1 X84.045 Y186.297 E6.18538
G1 X84.045 Y189.115 E6.29267
G1 X83.638 Y189.115 E6.30817
G1 X83.638 Y186.298 E6.41545
G1 X83.231 Y186.298 E6.43095
G1 X83.231 Y189.115 E6.53823
G1 X82.824 Y189.115 E6.55373
G1 X82.824 Y186.298 E6.661
G1 X82.417 Y186.298 E6.6765
G1 X82.417 Y189.115 E6.78375
G1 X82.01 Y189.115 E6.79925
G1 X82.01 Y186.299 E6.9065
G1 X81.603 Y186.299 E6.922
G1 X81.603 Y189.115 E7.02924
G1 X81.196 Y189.115 E7.04474
G1 X81.196 Y186.299 E7.15197
G1 X80.789 Y186.299 E7.16747
G1 X80.789 Y189.115 E7.27469
G1 X80.382 Y189.115 E7.29019
G1 X80.382 Y186.135 E7.40369
G1 E5.40369 F2400
G92 E0
G1 X189.424 Y189.445 F7800
G1 E2 F2400
G1 F1800
G1 X177.922 Y189.445 E2.43793
G1 X177.922 Y185.915 E2.57235
G1 X188.03 Y185.909 E2.95723
G1 X188.285 Y185.654 E2.97095
G1 X188.284 Y184.034 E3.03264
G1 X189.424 Y184.033 E3.07603
G1 X189.424 Y189.39 E3.28
G1 X189.065 Y189.28 F7800
G1 F1800
G1 X189.065 Y184.363 E3.46721
G1 X188.658 Y184.364 E3.48271
G1 X188.658 Y189.115 E3.66365
G1 X188.251 Y189.115 E3.67914
G1 X188.251 Y186.154 E3.79188
G1 X188.167 Y186.239 E3.79643
G1 X187.844 Y186.239 E3.80872
G1 X187.844 Y189.115 E3.91824
G1 X187.437 Y189.115 E3.93374
G1 X187.437 Y186.239 E4.04325
G1 X187.03 Y186.239 E4.05875
G1 X187.03 Y189.115 E4.16825
G1 X186.623 Y189.115 E4.18375
G1 X186.623 Y186.24 E4.29325
G1 X186.216 Y186.24 E4.30875
G1 X186.216 Y189.115 E4.41823
G1 X185.809 Y189.115 E4.43373
G1 X185.809 Y186.24 E4.54321
G1 X185.402 Y186.24 E4.55871
G1 X185.402 Y189.115 E4.66818
G1 X184.995 Y189.115 E4.68368
G1 X184.995 Y186.241 E4.79314
G1 X184.588 Y186.241 E4.80864
G1 X184.588 Y189.115 E4.91809
G1 X184.181 Y189.115 E4.93359
G1 X184.181 Y186.241 E5.04303
G1 X183.774 Y186.241 E5.05853
G1 X183.774 Y189.115 E5.16796
G1 X183.367 Y189.115 E5.18346
G1 X183.367 Y186.241 E5.29289
G1 X182.959 Y186.242 E5.30839
G1 X182.959 Y189.115 E5.4178
G1 X182.552 Y189.115 E5.4333
G1 X182.552 Y186.242 E5.54271
G1 X182.145 Y186.242 E5.55821
G1 X182.145 Y189.115 E5.66761
G1 X181.738 Y189.115 E5.68311
G1 X181.738 Y186.242 E5.7925
G1 X181.331 Y186.243 E5.808
G1 X181.331 Y189.115 E5.91738
G1 X180.924 Y189.115 E5.93288
G1 X180.924 Y186.243 E6.04225
G1 X180.517 Y186.243 E6.05775
G1 X180.517 Y189.115 E6.16711
G1 X180.11 Y189.115 E6.18261
G1 X180.11 Y186.243 E6.29197
G1 X179.703 Y186.244 E6.30747
G1 X179.703 Y189.115 E6.41681
G1 X179.296 Y189.115 E6.43231
G1 X179.296 Y186.244 E6.54165
G1 X178.889 Y186.244 E6.55715
G1 X178.889 Y189.115 E6.66648
G1 X178.482 Y189.115 E6.68198
G1 X178.482 Y186.079 E6.79758
G1 E4.79758 F2400
G92 E0
G1 X189.424 Y115.913 F7800
G1 E2 F2400
G1 F1800
G1 X188.246 Y115.914 E2.04486
G1 X188.245 Y114.294 E2.10655
G1 X187.99 Y114.039 E2.12027
G1 X177.922 Y114.045 E2.5036
G1 X177.922 Y110.574 E2.63576
G1 X189.424 Y110.574 E3.0737
G1 X189.424 Y115.858 E3.27491
G1 X189.065 Y115.749 F7800
G1 F1800
G1 X189.065 Y110.904 E3.4594
G1 X188.658 Y110.904 E3.4749
G1 X188.658 Y115.584 E3.65311
G1 X188.575 Y115.584 E3.65628
G1 X188.574 Y114.157 E3.71062
G1 X188.251 Y113.834 E3.728
G1 X188.251 Y110.904 E3.8396
G1 X187.844 Y110.904 E3.8551
G1 X187.844 Y113.709 E3.96193
G1 X187.437 Y113.71 E3.97743
G1 X187.437 Y110.904 E4.08428
G1 X187.03 Y110.904 E4.09978
G1 X187.03 Y113.71 E4.20664
G1 X186.623 Y113.71 E4.22214
G1 X186.623 Y110.904 E4.32901
G1 X186.216 Y110.904 E4.34451
G1 X186.216 Y113.71 E4.45138
G1 X185.809 Y113.711 E4.46688
G1 X185.809 Y110.904 E4.57376
G1 X185.402 Y110.904 E4.58926
G1 X185.402 Y113.711 E4.69615
G1 X184.995 Y113.711 E4.71165
G1 X184.995 Y110.904 E4.81856
G1 X184.588 Y110.904 E4.83405
G1 X184.588 Y113.711 E4.94096
G1 X184.181 Y113.712 E4.95646
G1 X184.181 Y110.904 E5.06338
G1 X183.774 Y110.904 E5.07888
G1 X183.774 Y113.712 E5.18581
G1 X183.367 Y113.712 E5.20131
G1 X183.367 Y110.904 E5.30824
G1 X182.959 Y110.904 E5.32374
G1 X182.959 Y113.712 E5.43069
G1 X182.552 Y113.712 E5.44619
G1 X182.552 Y110.904 E5.55314
G1 X182.145 Y110.904 E5.56864
G1 X182.145 Y113.713 E5.6756
G1 X181.738 Y113.713 E5.6911
G1 X181.738 Y110.904 E5.79807
G1 X181.331 Y110.904 E5.81357
G1 X181.331 Y113.713 E5.92055
G1 X180.924 Y113.713 E5.93605
G1 X180.924 Y110.904 E6.04304
G1 X180.517 Y110.904 E6.05854
G1 X180.517 Y113.714 E6.16554
G1 X180.11 Y113.714 E6.18104
G1 X180.11 Y110.904 E6.28804
G1 X179.703 Y110.904 E6.30354
G1 X179.703 Y113.714 E6.41056
G1 X179.296 Y113.714 E6.42606
G1 X179.296 Y110.904 E6.53308
G1 X178.889 Y110.904 E6.54858
G1 X178.889 Y113.715 E6.65561
G1 X178.482 Y113.715 E6.67111
G1 X178.482 Y110.739 E6.78443
G1 E4.78443 F2400
G92 E0
G1 X142.09 Y126.532 F7800
G1 E2 F2400
;TYPE:Perimeter
G1 F1800
G1 X142.116 Y173.147 E3.77497
G1 X103.531 Y173.168 E5.2442
G1 X103.505 Y126.554 E7.01918
G1 X142.03 Y126.532 E8.48612
G1 X141.724 Y126.898 F7800
G1 F1800
G1 X141.75 Y172.78 E10.23319
G1 X103.897 Y172.802 E11.67453
G1 X103.871 Y126.92 E13.4216
G1 X141.664 Y126.899 E14.86064
G1 X141.358 Y127.265 F7800
;TYPE:External perimeter
G1 F1800
G1 X141.383 Y172.414 E16.57982
G1 X104.263 Y172.435 E17.99325
G1 X104.238 Y127.286 E19.71242
G1 X141.298 Y127.265 E21.12357
G1 X141.74 Y127.149 F7800
G1 E19.12357 F2400
G92 E0
G1 X171.861 Y119.341 F7800
G1 E2 F2400
;TYPE:Perimeter
G1 F1800
G1 X171.895 Y180.626 E4.3336
G1 X148.798 Y180.639 E5.21309
G1 X148.763 Y119.354 E7.5467
G1 X171.801 Y119.341 E8.4239
G1 X171.494 Y119.707 F7800
G1 F1800
G1 X171.529 Y180.26 E10.72961
G1 X149.164 Y180.272 E11.5812
G1 X149.13 Y119.72 E13.8869
G1 X171.434 Y119.707 E14.73621
G1 X171.128 Y120.074 F7800
;TYPE:External perimeter
G1 F1800
G1 X171.162 Y179.894 E17.01401
G1 X149.53 Y179.906 E17.83771
G1 X149.496 Y120.086 E20.11551
G1 X171.068 Y120.074 E20.93692
G1 X171.495 Y119.915 F7800
G1 E18.93692 F2400
G92 E0
G1 X178.36 Y130.45 F7800
G1 E2 F2400
;TYPE:Perimeter
G1 F1800
G1 X197.491 Y130.439 E2.72847
G1 X197.514 Y171.483 E4.29134
G1 X178.383 Y171.494 E5.0198
G1 X178.36 Y130.51 E6.58039
G1 X178.726 Y130.816 F7800
G1 F1800
G1 X197.125 Y130.806 E7.28096
G1 X197.147 Y171.117 E8.81592
G1 X178.749 Y171.128 E9.51649
G1 X178.726 Y130.876 E11.04918
G1 X179.093 Y131.182 F7800
;TYPE:External perimeter
G1 F1800
G1 X196.758 Y131.172 E11.72184
G1 X196.781 Y170.751 E13.22891
G1 X179.115 Y170.761 E13.90158
G1 X179.093 Y131.242 E15.40637
G1 X179.037 Y130.786 F7800
G1 E13.40637 F2400
G92 E0
G1 X206.55 Y147.096 F7800
G1 E2 F2400
;TYPE:Perimeter
G1 F1800
G1 X206.587 Y147.006 E2.00367
G1 X207.59 Y145.698 E2.06646
G1 X208.898 Y144.693 E2.12925
G1 X210.421 Y144.061 E2.19204
G1 X212.056 Y143.845 E2.25483
G1 X213.691 Y144.059 E2.31762
G1 X215.215 Y144.69 E2.3804
G1 X216.523 Y145.693 E2.44319
G1 X217.528 Y147 E2.50598
G1 X218.16 Y148.523 E2.56877
