; generated by PrusaSlicer 2.4.2 on 2022-07-09 at 15:00:46 UTC

; 

; external perimeters extrusion width = 0.45mm
; perimeters extrusion width = 0.45mm
; infill extrusion width = 0.45mm
; solid infill extrusion width = 0.45mm
; top infill extrusion width = 0.40mm
; support material extrusion width = 0.35mm
; first layer extrusion width = 0.42mm

M107
M190 S60 ; set bed temperature and wait for it to be reached
M104 S205 ; set temperature
;TYPE:Custom
G28 ; home all axes
G1 Z5 F5000 ; lift nozzle
M109 S205 ; set temperature and wait for it to be reached
G21 ; set units to millimeters
G90 ; use absolute coordinates
M82 ; use absolute distances for extrusion
G92 E0
; Filament gcode
M107
;LAYER_CHANGE
;Z:0.25
;HEIGHT:0.25
G1 Z.25 F7800
G1 E-2 F2400
G92 E0
G1 X85.538 Y97.351 F7800
G1 E2 F2400
;TYPE:Skirt/Brim
;WIDTH:0.42
G1 F1800
G1 X87.281 Y95.931 E2.08559
G1 X89.451 Y95.2 E2.17281
G1 X123.685 Y90.229 E3.49002
G1 X124.6 Y90.163 E3.52494
G1 X209.085 Y90.163 E6.74193
G1 X211.298 Y90.56 E6.82753
G1 X213.234 Y91.701 E6.91312
G1 X214.654 Y93.444 E6.99872
G1 X215.413 Y95.831 E7.09409
G1 X216 Y101.5 E7.31112
G1 X216 Y198.5 E11.00465
G1 X215.413 Y204.169 E11.22168
G1 X214.776 Y206.325 E11.30727
G1 X213.429 Y208.125 E11.39287
G1 X211.541 Y209.345 E11.47846
G1 X209.085 Y209.837 E11.57383
G1 X124.6 Y209.837 E14.79083
G1 X123.685 Y209.771 E14.82575
G1 X89.451 Y204.8 E16.14296
G1 X87.319 Y204.09 E16.22855
G1 X85.566 Y202.682 E16.31415
G1 X84.412 Y200.753 E16.39974
G1 X84 Y198.5 E16.48696
G1 X84 Y101.5 E20.18048
G1 X84.397 Y99.287 E20.26608
G1 X85.507 Y97.402 E20.34939
G1 E18.34939 F2400
G92 E0
G1 X138.908 Y101.065 F7800
G1 E2 F2400
;TYPE:Support material
G1 F1800
G1 X124.6 Y101.065 E2.54482
G1 X124.6 Y96.529 E2.71753
G1 X138.908 Y96.529 E3.26235
G1 X138.908 Y101.01 E3.43298
G1 X138.195 Y100.9 F7800
G1 F1800
G1 X138.195 Y96.859 E3.58686
G1 X137.788 Y96.859 E3.60236
G1 X137.788 Y100.735 E3.74996
G1 X137.381 Y100.735 E3.76546
G1 X137.381 Y96.859 E3.91307
G1 X136.974 Y96.859 E3.92857
G1 X136.974 Y100.735 E4.07618
G1 X136.567 Y100.735 E4.09168
G1 X136.567 Y96.859 E4.23928
G1 X136.16 Y96.859 E4.25478
G1 X136.16 Y100.735 E4.40239
G1 X135.753 Y100.735 E4.41789
G1 X135.753 Y96.859 E4.56549
G1 X135.346 Y96.859 E4.58099
G1 X135.346 Y100.735 E4.7286
G1 X134.939 Y100.735 E4.7441
G1 X134.939 Y96.859 E4.8917
G1 X134.532 Y96.859 E4.9072
G1 X134.532 Y100.735 E5.05481
G1 X134.125 Y100.735 E5.07031
G1 X134.125 Y96.859 E5.21791
G1 X133.718 Y96.859 E5.23341
G1 X133.718 Y100.735 E5.38102
G1 X133.311 Y100.735 E5.39652
G1 X133.311 Y96.859 E5.54412
G1 X132.904 Y96.859 E5.55962
G1 X132.904 Y100.735 E5.70723
G1 X132.497 Y100.735 E5.72273
G1 X132.497 Y96.859 E5.87033
G1 X132.09 Y96.859 E5.88583
G1 X132.09 Y100.735 E6.03344
G1 X131.683 Y100.735 E6.04894
G1 X131.683 Y96.859 E6.19655
G1 X131.275 Y96.859 E6.21204
G1 X131.275 Y100.735 E6.35965
G1 X130.868 Y100.735 E6.37515
G1 X130.868 Y96.859 E6.52276
G1 X130.461 Y96.859 E6.53826
G1 X130.461 Y100.735 E6.68586
G1 X130.054 Y100.735 E6.70136
G1 X130.054 Y96.859 E6.84897
G1 X129.647 Y96.859 E6.86447
G1 X129.647 Y100.735 E7.01207
G1 X129.24 Y100.735 E7.02757
G1 X129.24 Y96.859 E7.17518
G1 X128.833 Y96.859 E7.19068
G1 X128.833 Y100.735 E7.33828
G1 X128.426 Y100.735 E7.35378
G1 X128.426 Y96.859 E7.50139
G1 X128.019 Y96.859 E7.51689
G1 X128.019 Y100.735 E7.66449
G1 X127.612 Y100.735 E7.67999
G1 X127.612 Y96.859 E7.8276
G1 X127.205 Y96.859 E7.8431
G1 X127.205 Y100.735 E7.9907
G1 X126.798 Y100.735 E8.0062
G1 X126.798 Y96.859 E8.15381
G1 X126.391 Y96.859 E8.16931
G1 X126.391 Y100.735 E8.31691
G1 X125.984 Y100.735 E8.33241
G1 X125.984 Y96.859 E8.48002
G1 X125.577 Y96.859 E8.49552
G1 X125.577 Y100.735 E8.64313
G1 X125.17 Y100.735 E8.65863
G1 X125.17 Y96.694 E8.81251
G1 E6.81251 F2400
G92 E0
G1 X209.085 Y101.065 F7800
G1 E2 F2400
G1 F1800
G1 X194.777 Y101.065 E2.54482
G1 X194.777 Y96.529 E2.71753
G1 X209.085 Y96.529 E3.26235
G1 X209.085 Y101.01 E3.43298
G1 X208.616 Y100.9 F7800
G1 F1800
G1 X208.616 Y96.859 E3.58686
G1 X208.209 Y96.859 E3.60236
G1 X208.209 Y100.735 E3.74996
G1 X207.802 Y100.735 E3.76546
G1 X207.802 Y96.859 E3.91307
G1 X207.395 Y96.859 E3.92857
G1 X207.395 Y100.735 E4.07618
G1 X206.988 Y100.735 E4.09168
G1 X206.988 Y96.859 E4.23928
G1 X206.581 Y96.859 E4.25478
G1 X206.581 Y100.735 E4.40239
G1 X206.174 Y100.735 E4.41789
G1 X206.174 Y96.859 E4.56549
G1 X205.767 Y96.859 E4.58099
G1 X205.767 Y100.735 E4.7286
G1 X205.359 Y100.735 E4.7441
G1 X205.359 Y96.859 E4.8917
G1 X204.952 Y96.859 E4.9072
G1 X204.952 Y100.735 E5.05481
G1 X204.545 Y100.735 E5.07031
G1 X204.545 Y96.859 E5.21791
G1 X204.138 Y96.859 E5.23341
G1 X204.138 Y100.735 E5.38102
G1 X203.731 Y100.735 E5.39652
G1 X203.731 Y96.859 E5.54412
G1 X203.324 Y96.859 E5.55962
G1 X203.324 Y100.735 E5.70723
G1 X202.917 Y100.735 E5.72273
G1 X202.917 Y96.859 E5.87033
G1 X202.51 Y96.859 E5.88583
G1 X202.51 Y100.735 E6.03344
G1 X202.103 Y100.735 E6.04894
G1 X202.103 Y96.859 E6.19655
G1 X201.696 Y96.859 E6.21204
G1 X201.696 Y100.735 E6.35965
G1 X201.289 Y100.735 E6.37515
G1 X201.289 Y96.859 E6.52276
G1 X200.882 Y96.859 E6.53826
G1 X200.882 Y100.735 E6.68586
G1 X200.475 Y100.735 E6.70136
G1 X200.475 Y96.859 E6.84897
G1 X200.068 Y96.859 E6.86447
G1 X200.068 Y100.735 E7.01207
G1 X199.661 Y100.735 E7.02757
G1 X199.661 Y96.859 E7.17518
G1 X199.254 Y96.859 E7.19068
G1 X199.254 Y100.735 E7.33828
G1 X198.847 Y100.735 E7.35378
G1 X198.847 Y96.859 E7.50139
G1 X198.44 Y96.859 E7.51689
G1 X198.44 Y100.735 E7.66449
G1 X198.032 Y100.735 E7.67999
G1 X198.032 Y96.859 E7.8276
G1 X197.625 Y96.859 E7.8431
G1 X197.625 Y100.735 E7.9907
G1 X197.218 Y100.735 E8.0062
G1 X197.218 Y96.859 E8.15381
G1 X196.811 Y96.859 E8.16931
G1 X196.811 Y100.735 E8.31691
G1 X196.404 Y100.735 E8.33241
G1 X196.404 Y96.859 E8.48002
G1 X195.997 Y96.859 E8.49552
G1 X195.997 Y100.735 E8.64313
G1 X195.59 Y100.735 E8.65863
G1 X195.59 Y96.859 E8.80623
G1 X195.183 Y96.859 E8.82173
G1 X195.183 Y100.9 E8.97561
G1 E6.97561 F2400
G92 E0
G1 X209.085 Y203.471 F7800
G1 E2 F2400
G1 F1800
G1 X194.777 Y203.471 E2.54482
G1 X194.777 Y198.935 E2.71754
G1 X209.085 Y198.935 E3.26235
G1 X209.085 Y203.416 E3.43298
G1 X208.616 Y203.306 F7800
G1 F1800
G1 X208.616 Y199.265 E3.58686
G1 X208.209 Y199.265 E3.60236
G1 X208.209 Y203.141 E3.74997
G1 X207.802 Y203.141 E3.76547
G1 X207.802 Y199.265 E3.91307
G1 X207.395 Y199.265 E3.92857
G1 X207.395 Y203.141 E4.07618
G1 X206.988 Y203.141 E4.09168
G1 X206.988 Y199.265 E4.23929
G1 X206.581 Y199.265 E4.25479
G1 X206.581 Y203.141 E4.40239
G1 X206.174 Y203.141 E4.41789
G1 X206.174 Y199.265 E4.5655
G1 X205.767 Y199.265 E4.581
G1 X205.767 Y203.141 E4.72861
G1 X205.359 Y203.141 E4.7441
G1 X205.359 Y199.265 E4.89171
G1 X204.952 Y199.265 E4.90721
G1 X204.952 Y203.141 E5.05482
G1 X204.545 Y203.141 E5.07032
G1 X204.545 Y199.265 E5.21792
G1 X204.138 Y199.265 E5.23342
G1 X204.138 Y203.141 E5.38103
G1 X203.731 Y203.141 E5.39653
G1 X203.731 Y199.265 E5.54414
G1 X203.324 Y199.265 E5.55964
G1 X203.324 Y203.141 E5.70724
G1 X202.917 Y203.141 E5.72274
G1 X202.917 Y199.265 E5.87035
G1 X202.51 Y199.265 E5.88585
G1 X202.51 Y203.141 E6.03345
G1 X202.103 Y203.141 E6.04895
G1 X202.103 Y199.265 E6.19656
G1 X201.696 Y199.265 E6.21206
G1 X201.696 Y203.141 E6.35967
G1 X201.289 Y203.141 E6.37517
G1 X201.289 Y199.265 E6.52277
G1 X200.882 Y199.265 E6.53827
G1 X200.882 Y203.141 E6.68588
G1 X200.475 Y203.141 E6.70138
G1 X200.475 Y199.265 E6.84899
G1 X200.068 Y199.265 E6.86449
G1 X200.068 Y203.141 E7.01209
G1 X199.661 Y203.141 E7.02759
G1 X199.661 Y199.265 E7.1752
G1 X199.254 Y199.265 E7.1907
G1 X199.254 Y203.141 E7.3383
G1 X198.847 Y203.141 E7.3538
G1 X198.847 Y199.265 E7.50141
G1 X198.44 Y199.265 E7.51691
G1 X198.44 Y203.141 E7.66452
G1 X198.032 Y203.141 E7.68002
G1 X198.032 Y199.265 E7.82762
G1 X197.625 Y199.265 E7.84312
G1 X197.625 Y203.141 E7.99073
G1 X197.218 Y203.141 E8.00623
G1 X197.218 Y199.265 E8.15384
G1 X196.811 Y199.265 E8.16933
G1 X196.811 Y203.141 E8.31694
G1 X196.404 Y203.141 E8.33244
G1 X196.404 Y199.265 E8.48005
G1 X195.997 Y199.265 E8.49555
G1 X195.997 Y203.141 E8.64315
G1 X195.59 Y203.141 E8.65865
G1 X195.59 Y199.265 E8.80626
G1 X195.183 Y199.265 E8.82176
G1 X195.183 Y203.306 E8.97564
G1 E6.97564 F2400
G92 E0
G1 X138.908 Y203.471 F7800
G1 E2 F2400
G1 F1800
G1 X124.6 Y203.471 E2.54482
G1 X124.6 Y198.935 E2.71754
G1 X138.908 Y198.935 E3.26235
G1 X138.908 Y203.416 E3.43298
G1 X138.195 Y203.306 F7800
G1 F1800
G1 X138.195 Y199.265 E3.58686
G1 X137.788 Y199.265 E3.60236
G1 X137.788 Y203.141 E3.74997
G1 X137.381 Y203.141 E3.76547
G1 X137.381 Y199.265 E3.91307
G1 X136.974 Y199.265 E3.92857
G1 X136.974 Y203.141 E4.07618
G1 X136.567 Y203.141 E4.09168
G1 X136.567 Y199.265 E4.23929
G1 X136.16 Y199.265 E4.25479
G1 X136.16 Y203.141 E4.40239
G1 X135.753 Y203.141 E4.41789
G1 X135.753 Y199.265 E4.5655
G1 X135.346 Y199.265 E4.581
G1 X135.346 Y203.141 E4.72861
G1 X134.939 Y203.141 E4.7441
G1 X134.939 Y199.265 E4.89171
G1 X134.532 Y199.265 E4.90721
G1 X134.532 Y203.141 E5.05482
G1 X134.125 Y203.141 E5.07032
G1 X134.125 Y199.265 E5.21792
G1 X133.718 Y199.265 E5.23342
G1 X133.718 Y203.141 E5.38103
G1 X133.311 Y203.141 E5.39653
G1 X133.311 Y199.265 E5.54414
G1 X132.904 Y199.265 E5.55964
G1 X132.904 Y203.141 E5.70724
G1 X132.497 Y203.141 E5.72274
G1 X132.497 Y199.265 E5.87035
G1 X132.09 Y199.265 E5.88585
G1 X132.09 Y203.141 E6.03345
G1 X131.683 Y203.141 E6.04895
G1 X131.683 Y199.265 E6.19656
G1 X131.275 Y199.265 E6.21206
G1 X131.275 Y203.141 E6.35967
G1 X130.868 Y203.141 E6.37517
G1 X130.868 Y199.265 E6.52277
G1 X130.461 Y199.265 E6.53827
G1 X130.461 Y203.141 E6.68588
G1 X130.054 Y203.141 E6.70138
G1 X130.054 Y199.265 E6.84899
G1 X129.647 Y199.265 E6.86449
G1 X129.647 Y203.141 E7.01209
G1 X129.24 Y203.141 E7.02759
G1 X129.24 Y199.265 E7.1752
G1 X128.833 Y199.265 E7.1907
G1 X128.833 Y203.141 E7.3383
G1 X128.426 Y203.141 E7.3538
G1 X128.426 Y199.265 E7.50141
G1 X128.019 Y199.265 E7.51691
G1 X128.019 Y203.141 E7.66452
G1 X127.612 Y203.141 E7.68002
G1 X127.612 Y199.265 E7.82762
G1 X127.205 Y199.265 E7.84312
G1 X127.205 Y203.141 E7.99073
G1 X126.798 Y203.141 E8.00623
G1 X126.798 Y199.265 E8.15384
G1 X126.391 Y199.265 E8.16933
G1 X126.391 Y203.141 E8.31694
G1 X125.984 Y203.141 E8.33244
G1 X125.984 Y199.265 E8.48005
G1 X125.577 Y199.265 E8.49555
G1 X125.577 Y203.141 E8.64315
G1 X125.17 Y203.141 E8.65865
G1 X125.17 Y199.1 E8.81254
G1 E6.81254 F2400
G92 E0
G1 X199.739 Y128.472 F7800
G1 E2 F2400
;TYPE:Perimeter
G1 F1800
G1 X199.739 Y171.951 E3.65559
G1 X119.255 Y171.951 E6.72023
G1 X119.255 Y128.472 E8.37581
G1 X199.679 Y128.472 E11.43817
G1 X199.372 Y128.838 F7800
G1 F1800
G1 X199.372 Y171.585 E13.06586
G1 X119.621 Y171.585 E16.10259
G1 X119.621 Y128.838 E17.73028
G1 X199.312 Y128.838 E20.76474
G1 X199.006 Y129.205 F7800
;TYPE:External perimeter
G1 F1800
G1 X199.006 Y171.218 E22.36453
G1 X119.987 Y171.218 E25.37337
G1 X119.987 Y129.205 E26.97315
G1 X198.946 Y129.205 E29.97971
G1 X199.401 Y129.14 F7800
G1 E27.97971 F2400
G92 E0
G1 X112.094 Y147.938 F7800
G1 E2 F2400
;TYPE:Perimeter
G1 F1800
G1 X112.094 Y149.654 E2.06535
G1 X111.644 Y151.406 E2.13422
G1 X110.773 Y152.991 E2.2031
G1 X109.534 Y154.31 E2.27197
G1 X108.007 Y155.279 E2.34084
G1 X106.287 Y155.838 E2.40972
G1 X104.482 Y155.952 E2.47859
G1 X102.705 Y155.613 E2.54746
G1 X101.068 Y154.843 E2.61634
G1 X99.675 Y153.69 E2.68521
G1 X98.612 Y152.226 E2.75408
G1 X97.946 Y150.545 E2.82296
G1 X97.719 Y148.75 E2.89183
G1 X97.946 Y146.955 E2.9607
G1 X98.612 Y145.274 E3.02958
G1 X99.675 Y143.81 E3.09845
G1 X101.068 Y142.657 E3.16732
G1 X102.705 Y141.887 E3.2362
G1 X104.482 Y141.548 E3.30507
G1 X106.287 Y141.662 E3.37394
G1 X108.007 Y142.221 E3.44282
G1 X109.534 Y143.19 E3.51169
G1 X110.773 Y144.509 E3.58056
G1 X111.644 Y146.094 E3.64944
G1 X112.094 Y147.878 E3.71951
G1 X111.727 Y147.938 F7800
G1 F1800
G1 X111.727 Y149.608 E3.7831
G1 X111.301 Y151.27 E3.84845
G1 X110.474 Y152.774 E3.9138
G1 X109.299 Y154.025 E3.97914
G1 X107.85 Y154.945 E4.04449
G1 X106.218 Y155.475 E4.10984
G1 X104.505 Y155.583 E4.17519
G1 X102.819 Y155.261 E4.24054
G1 X101.266 Y154.531 E4.30589
G1 X99.944 Y153.437 E4.37124
G1 X98.935 Y152.048 E4.43659
G1 X98.303 Y150.453 E4.50194
G1 X98.088 Y148.75 E4.56728
G1 X98.303 Y147.047 E4.63263
G1 X98.935 Y145.452 E4.69798
G1 X99.944 Y144.063 E4.76333
G1 X101.266 Y142.969 E4.82868
G1 X102.819 Y142.239 E4.89403
G1 X104.505 Y141.917 E4.95938
G1 X106.218 Y142.025 E5.02473
G1 X107.85 Y142.555 E5.09008
G1 X109.299 Y143.475 E5.15542
G1 X110.474 Y144.726 E5.22077
G1 X111.301 Y146.23 E5.28612
G1 X111.724 Y147.879 E5.35095
G1 X111.361 Y147.938 F7800
;TYPE:External perimeter
G1 F1800
G1 X111.361 Y149.562 E5.41277
G1 X111.225 Y150.09 E5.43356
G1 X110.957 Y151.134 E5.4746
G1 X110.175 Y152.557 E5.53642
G1 X109.064 Y153.741 E5.59825
G1 X108.699 Y153.972 E5.61469
G1 X107.693 Y154.611 E5.66007
G1 X106.149 Y155.113 E5.72189
G1 X104.528 Y155.215 E5.78372
G1 X102.933 Y154.91 E5.84554
G1 X101.464 Y154.219 E5.90737
G1 X100.213 Y153.184 E5.96919
G1 X99.259 Y151.87 E6.03102
G1 X98.661 Y150.361 E6.09284
G1 X98.458 Y148.75 E6.15467
G1 X98.661 Y147.139 E6.21649
G1 X99.259 Y145.63 E6.27831
G1 X100.213 Y144.316 E6.34014
G1 X101.464 Y143.281 E6.40196
G1 X102.933 Y142.59 E6.46379
G1 X104.528 Y142.285 E6.52561
G1 X106.149 Y142.387 E6.58744
G1 X107.693 Y142.889 E6.64926
G1 X109.064 Y143.759 E6.71108
G1 X110.175 Y144.943 E6.77291
G1 X110.957 Y146.366 E6.83473
G1 X111.346 Y147.88 E6.89427
G1 X111.73 Y148.093 F7800
G1 E4.89427 F2400
G92 E0
G1 X91.509 Y102.643 F7800
G1 E2 F2400
;TYPE:Perimeter
G1 F1800
G1 X208.491 Y102.643 E6.4544
G1 X208.491 Y197.357 E10.0609
G1 X91.509 Y197.357 E14.5153
G1 X91.509 Y102.703 E18.11952
G1 X91.143 Y102.276 F7800
G1 F1800
G1 X208.857 Y102.276 E22.60182
G1 X208.857 Y197.724 E26.23623
G1 X91.143 Y197.724 E30.71853
G1 X91.143 Y102.336 E34.35065
G1 X90.776 Y101.91 F7800
;TYPE:External perimeter
G1 F1800
G1 X209.224 Y101.91 E38.86084
G1 X209.224 Y198.09 E42.52315
G1 X90.776 Y198.09 E47.03335
G1 X90.776 Y101.97 E50.69336
G1 X91.166 Y102 F7800
G1 E48.69336 F2400
G92 E0
G1 X207.639 Y102.753 F7800
G1 E2 F2400
;TYPE:Solid infill
;WIDTH:0.420807
G1 F1800
G1 X208.216 Y103.33 E2.03116
G1 X208.216 Y103.849 E2.05098
G1 X207.284 Y102.917 E2.10127
G1 X206.765 Y102.917 E2.12108
G1 X208.216 Y104.369 E2.19939
G1 X208.216 Y104.888 E2.21921
G1 X206.246 Y102.917 E2.32554
G1 X205.727 Y102.917 E2.34536
G1 X208.216 Y105.407 E2.47971
G1 X208.216 Y105.926 E2.49953
G1 X205.208 Y102.917 E2.66191
G1 X204.688 Y102.917 E2.68172
G1 X208.216 Y106.445 E2.87212
G1 X208.216 Y106.965 E2.89194
G1 X204.169 Y102.917 E3.11036
G1 X203.65 Y102.917 E3.13018
G1 X208.216 Y107.484 E3.37662
G1 X208.216 Y108.003 E3.39644
G1 X203.131 Y102.917 E3.67091
G1 X202.611 Y102.917 E3.69072
G1 X208.216 Y108.522 E3.99322
G1 X208.216 Y109.042 E4.01303
G1 X202.092 Y102.917 E4.34354
G1 X201.573 Y102.917 E4.36336
G1 X208.216 Y109.561 E4.7219
G1 X208.216 Y110.08 E4.74171
G1 X201.054 Y102.917 E5.12827
G1 X200.534 Y102.917 E5.14809
G1 X208.216 Y110.599 E5.56267
G1 X208.216 Y111.119 E5.58248
G1 X200.015 Y102.917 E6.02509
G1 X199.496 Y102.917 E6.0449
G1 X208.216 Y111.638 E6.51553
G1 X208.216 Y112.157 E6.53534
G1 X198.977 Y102.917 E7.03399
G1 X198.457 Y102.917 E7.05381
G1 X208.216 Y112.676 E7.58048
G1 X208.216 Y113.196 E7.6003
G1 X197.938 Y102.917 E8.15499
G1 X197.419 Y102.917 E8.17481
G1 X208.216 Y113.715 E8.75752
G1 X208.216 Y114.234 E8.77734
G1 X196.9 Y102.917 E9.38808
G1 X196.38 Y102.917 E9.40789
G1 X208.216 Y114.753 E10.04666
G1 X208.216 Y115.273 E10.06647
G1 X195.861 Y102.917 E10.73325
G1 X195.342 Y102.917 E10.75307
G1 X208.216 Y115.792 E11.44788
G1 X208.216 Y116.311 E11.46769
G1 X194.823 Y102.917 E12.19052
G1 X194.304 Y102.917 E12.21034
G1 X208.216 Y116.83 E12.96119
G1 X208.216 Y117.349 E12.981
G1 X193.784 Y102.917 E13.75988
G1 X193.265 Y102.917 E13.77969
G1 X208.216 Y117.869 E14.58659
G1 X208.216 Y118.388 E14.60641
G1 X192.746 Y102.917 E15.44133
G1 X192.227 Y102.917 E15.46114
G1 X208.216 Y118.907 E16.32409
G1 X208.216 Y119.426 E16.3439
G1 X191.707 Y102.917 E17.23487
G1 X191.188 Y102.917 E17.25468
G1 X208.216 Y119.946 E18.17367
